!!!COM: Banchieri, Adriano
!!!CDT: 1568/09/03/-1634///
!!!OTL: Confitemini Deo
!!!OTL2: Aprestateci fede
!!!ONM: No. 7
!!!SMS: Musica tolta da i madrigali di Claudio Monteverdi, e d'altri autori, e fatta spirituale
!!!PPR: A. Coppini, ed.
!!!PPP: Milan
!!!PDT: 1607
!!!URL: http://www.jpj.dk/coppini.htm
!!!AIN: contrafacta
**kern	**kern	**kern	**kern	**kern
*staff5	*staff4	*staff3	*staff2	*staff1
*Ivox	*Ivox	*Ivox	*Ivox	*Ivox
!basso	!tenore	!alto	!quinto	!canto
*clefF4	*clefGv2	*clefG2	*clefG2	*clefG2
*k[b-]	*k[b-]	*k[b-]	*k[b-]	*k[b-]
*M4/4	*M4/4	*M4/4	*M4/4	*M4/4
*MM120	*MM120	*MM120	*MM120	*MM120
=1-	=1-	=1-	=1-	=1-
1r	1r	4g/	2r	2r
.	.	4g/	.	.
.	.	[2g/	4b-\	4dd\
.	.	.	4b-\	4dd\
=2	=2	=2	=2	=2
1r	1r	4g/]	2b-\	2dd\
.	.	4g/	.	.
.	.	2g/	4b-\	4dd\
.	.	.	4g/	4b-\
=3	=3	=3	=3	=3
1r	1r	2f/	2a/	2cc\
.	.	4f/	4a/	4cc\
.	.	4d/	4b-\	4dd\
=4	=4	=4	=4	=4
1r	1r	4.e-/	4.g/	4.b-\
.	.	8d/	8f/	8dd\
.	.	4e-/	4g/	4cc\
.	.	4f/	4a/	4cc\
=5	=5	=5	=5	=5
1r	1r	2B-/	2b-\	2dd\
.	.	4B-/	4b-\	4dd\
.	.	4B-/	4b-\	4dd\
=6	=6	=6	=6	=6
1r	1r	4.f/	4.a/	4.cc\
.	.	8f/	8a/	8cc\
.	.	4f/	4a/	4cc\
.	.	4g/	4g/	4bn\
=7	=7	=7	=7	=7
1r	1r	2.c/	2.g/	2.cc\
.	.	4c/	4a/	4cc\
=8	=8	=8	=8	=8
1r	1r	2d/	4f#/	2cc\
.	.	.	4f#/	.
.	.	2G/	[2g/	2b-\
=9	=9	=9	=9	=9
1r	1r	1d	4g/]	1a
.	.	.	8f#/L	.
.	.	.	8e/J	.
.	.	.	2f#/	.
=10	=10	=10	=10	=10
1r	2r	1G	1g	1g
.	4d\	.	.	.
.	4d\	.	.	.
=11	=11	=11	=11	=11
4G\	1d	2r	2r	2r
4G\	.	.	.	.
[2G\	.	4g/	4dd\	4b-\
.	.	4g/	4dd\	4b-\
=12	=12	=12	=12	=12
4G\]	2d\	2g/	2dd\	2b-\
4G\	.	.	.	.
2G\	2B-\	4g/	4dd\	4b-\
.	.	4d/	4b-\	4g/
=13	=13	=13	=13	=13
2F\	2A/	2f/	2cc\	2a/
4F\	4A/	4f/	4cc\	4a/
4D\	4F/	4f/	4dd\	4b-\
=14	=14	=14	=14	=14
4.E-\	4.G/	4.e-/	4.b-\	4.g/
8D\	8F/	8f/	8dd\	8b-\
4E-\	4G/	4e-/	4cc\	4g/
4F\	4F/	4c/	4cc\	4a/
=15	=15	=15	=15	=15
2BB-/	2F/	2B-/	2dd\	2b-\
4BB-/	4F/	4B-/	4dd\	4b-\
4BB-/	4F/	4f/	4dd\	4b-\
=16	=16	=16	=16	=16
4.F\	4.A/	4.f/	4.cc\	4.a/
8F\	8A/	8f/	8cc\	8a/
4F\	4c\	4f/	4cc\	4a/
4G\	4G/	4d/	4bn\	4g/
=17	=17	=17	=17	=17
2.C/	2G/	2.e-/	2.cc\	2.g/
.	2c\	.	.	.
4C/	.	4e-/	4cc\	4g/
=18	=18	=18	=18	=18
2D\	2A/	2d/	2cc\	4f#/
.	.	.	.	4f#/
2GG/	2G/	2d/	2b-\	[2g/
=19	=19	=19	=19	=19
1D	1A	1d	4a/	2g/]
.	.	.	4d/	.
.	.	.	2dd\	2f#/
=20	=20	=20	=20	=20
1GG	1G	1d	1bn	1g
=21	=21	=21	=21	=21
1r	2r	1r	2r	2r
.	2d\	.	2a/	4r
.	.	.	.	4f#/
=22	=22	=22	=22	=22
1r	2d\	1r	2a/	2f#/
.	2d\	.	4a/	2f#/
.	.	.	[4dd\	.
=23	=23	=23	=23	=23
1r	1e-	1r	4dd\]	1g
.	.	.	8cc\L	.
.	.	.	8b-\J	.
.	.	.	2cc\	.
=24	=24	=24	=24	=24
2r	2d\	2r	1dd	1a
2D\	4r	2A/	.	.
.	4F#/	.	.	.
=25	=25	=25	=25	=25
2D\	2F#/	2A/	1r	1r
2D\	2F#/	4A/	.	.
.	.	[4d/	.	.
=26	=26	=26	=26	=26
1E-	1G	4d/]	1r	1r
.	.	8c/L	.	.
.	.	8B-/J	.	.
.	.	2c/	.	.
=27	=27	=27	=27	=27
1D	1A	1d	1r	1r
=28	=28	=28	=28	=28
2.BB-/	2.B-\	2.f/	2.dd\	2.b-\
4BB-/	4B-\	4f/	4dd\	4b-\
=29	=29	=29	=29	=29
2E-\	2B-\	2g/	2ee-\	4g/
.	.	.	.	4a/
2BB-/	2B-\	2f/	2dd\	[2b-\
=30	=30	=30	=30	=30
1F	1c	1f	1cc	4b-\]
.	.	.	.	8a/L
.	.	.	.	8g/J
.	.	.	.	2a/
=31	=31	=31	=31	=31
1BB-	1B-	2d/	2dd\	2b-\
.	.	4r	4r	4r
.	.	4B-/	4dd\	4b-\
=32	=32	=32	=32	=32
1r	1r	4.f/	4.cc\	4.a/
.	.	8d/	8dd\	8b-\
.	.	4e/	4b-\	4g/
.	.	4c/	4cc\	4a/
=33	=33	=33	=33	=33
1r	1r	4.d/	4.a/	4.f#/
.	.	8B-/	8b-\	8g/
.	.	4c/	4g/	4e/
.	.	4G/	4b-\	4g/
=34	=34	=34	=34	=34
2r	2r	2d/	2a/	2f#/
4r	4r	4G/	2g/	2g/
4B-\	4G/	4d/	.	.
=35	=35	=35	=35	=35
4.F\	4.A/	4.c/	1r	1r
8D\	8B-\	8d/	.	.
4E-\	4G/	4B-/	.	.
4C/	4A/	4c/	.	.
=36	=36	=36	=36	=36
4.D\	4.F#/	4.A/	1r	1r
8BB-/	8G/	8B-/	.	.
4C/	4E/	4G/	.	.
4GG/	4G/	4B-/	.	.
=37	=37	=37	=37	=37
2D\	2F#/	2A/	1r	1r
2GG/	2G/	2G/	.	.
=38	=38	=38	=38	=38
1r	2r	1r	2r	2r
.	2d\	.	4r	2a/
.	.	.	4f#/	.
=39	=39	=39	=39	=39
1r	2d\	1r	2f#/	2a/
.	2d\	.	2f#/	4a/
.	.	.	.	[4dd\
=40	=40	=40	=40	=40
1r	1e-	1r	1g	4dd\]
.	.	.	.	8cc\L
.	.	.	.	8b-\J
.	.	.	.	2cc\
=41	=41	=41	=41	=41
2r	2d\	2r	1a	1dd
2D\	4r	2A/	.	.
.	4F#/	.	.	.
=42	=42	=42	=42	=42
2D\	2F#/	2A/	1r	1r
2D\	2F#/	4A/	.	.
.	.	[4d/	.	.
=43	=43	=43	=43	=43
1E-	1G	4d/]	1r	1r
.	.	8c/L	.	.
.	.	8B-/J	.	.
.	.	2c/	.	.
=44	=44	=44	=44	=44
1D	1A	1d	1r	1r
=45	=45	=45	=45	=45
2.BB-/	2.B-\	2.f/	2.b-\	2.dd\
4BB-/	4B-\	4f/	4b-\	4dd\
=46	=46	=46	=46	=46
2E-\	2B-\	2g/	4g/	2ee-\
.	.	.	4a/	.
2BB-/	2B-\	2f/	[2b-\	2dd\
=47	=47	=47	=47	=47
1F	1c	1f	4b-\]	1cc
.	.	.	8a/L	.
.	.	.	8g/J	.
.	.	.	2a/	.
=48	=48	=48	=48	=48
1BB-	1B-	2d/	2b-\	2dd\
.	.	4r	4r	4r
.	.	4B-/	4b-\	4dd\
=49	=49	=49	=49	=49
1r	1r	4.f/	4.a/	4.cc\
.	.	8d/	8b-\	8dd\
.	.	4e/	4g/	4b-\
.	.	4c/	4a/	4cc\
=50	=50	=50	=50	=50
1r	1r	4.d/	4.f#/	4.a/
.	.	8B-/	8g/	8b-\
.	.	4c/	4e/	4g/
.	.	4G/	4g/	4b-\
=51	=51	=51	=51	=51
2r	2r	2d/	2f#/	2a/
4r	4r	4G/	2g/	2g/
4B-\	4G/	4d/	.	.
=52	=52	=52	=52	=52
4.F\	4.A/	4.c/	1r	1r
8D\	8B-\	8d/	.	.
4E-\	4G/	4B-/	.	.
4C/	4A/	4c/	.	.
=53	=53	=53	=53	=53
4.D\	4.F#/	4.A/	1r	1r
8BB-/	8G/	8B-/	.	.
4C/	4E/	4G/	.	.
4GG/	4G/	4B-/	.	.
=54	=54	=54	=54	=54
2D\	2F#/	2A/	1r	1r
2GG/	2G/	2G/	.	.
=55	=55	=55	=55	=55
1r	2.G/	2r	1r	1r
.	.	[2g/	.	.
.	4G/	.	.	.
=56	=56	=56	=56	=56
2.C/	1G	2g/]	2.cc\	2.ee-\
.	.	2G/	.	.
4BBn/	.	.	4dd\	4dd\
=57	=57	=57	=57	=57
2C/	2G/	2c/	2ee-\	2cc\
2GG/	[2G/	2d/	2dd\	2b-\
=58	=58	=58	=58	=58
1D	4G/]	1d	1dd	1a
.	8F#/L	.	.	.
.	8E/J	.	.	.
.	2F#/	.	.	.
=59	=59	=59	=59	=59
1GG;	1G;	1d;	1bn;	1g;
==	==	==	==	==
*-	*-	*-	*-	*-
!!!ENC: Craig Stuart Sapp
!!!END: 2004/12/10/
